X: 10232
T: JOHNNY COPY -- Reel
C: Composed by W. B. LAYBOURN
R: reel
B: K\"ohler's Violin Repository, v.1, 1885 p.23 #2
F: http://www.archive.org/details/klersviolinrepos01edin
Z: 2011 John Chambers <jc:trillian.mit.edu>
M: C|
L: 1/8
K: Gm
uD2 |\
(G^F)GA (GA)Bc | (dc)BA (GA)BG | (F=E)FG (FG)AB | (cf)cA (dc)BA |
(BA)B=B (cA)_Bc | (dD)FA (dc)BA | (G^F)Gg (dc)BA | G2B2G2 ||
uF2 |\
(B{cB}A)Bc (BF)DF | (B{cB}A)Bd (fd)cB | (AF)(cF) (dF)(cF) | (AB)cd (cA)FA |
(BA)B=B (cA)_Bc | (dD)FA (dc)BA | (G^F)Gg (dc)BA | G2B2"_D.C. Fine."G2 |]

%%sep 2 1 500

